X:1
T:La Montarde
C:Bransle Renaissance, abc file by Bernard Loffet
L:1/8
Q:230
M:2/4
K:C
[AD,]B[cD,][AD,]|[^cD,]B[=cD,][AD,]|[AD,]A/A/[AD,][AD,]|[GC,]F[EC,][DC,]|[AD,]B[cD,][AD,]|[^cD,]B[=cD,][AD,]|[GC,]A/G/[FG,][EC,]| \
[DC,]C[D2D,2]|[AD,]B[cD,][AD,]|[^cD,]B[=cD,][AD,]|[AD,]A/A/[AD,][AD,]|[GC,]F[EC,][DC,]|[AD,]B[cD,][AD,]|[^cD,]B[=cD,][AD,]|[GC,]A/G/[FG,][EC,]| \
[DC,]E/C/[D2D,2]|:[^cD,D]c/c/[=cD,D]B|[cD,D]A[G2G,2G,2]|[BG,G,]B/B/[BG,G,]B|[cD,D]A[G2G,2G,2]|[BG,G,]B/B/[BG,G,]B|[cD,D]A[G2G,2G,2]:| \
Z:Created with TablEdit http://www.tabledit.com/ by Bernard Loffet
